!!!OTL: UND DO ICH SASS IN MEINER ZELL
!!!ARE: Europa, Mitteleuropa, Deutschland
!!!SCT: E1584
!!!YEM: Copyright 1995, estate of Helmut Schaffrath.
**kern
*ICvox
*Ivox
*M4/4
*k[b-]
*F:
{4f
=1
2f
2a
=2
2cc
4r}
{4cc
=3
4dd
4cc
4cc
4b-
=4
2a
4r}
{4a
=5
4a
4a
4a
4a
=6
2b-
4a}
{4g
=7
4a
4g
4g
4f
=8
2g
4r}
{4g
=9
4d
4d
2e
=10
2f
4r}
{4f
=11
4a
4a
4a
4a
=12
2f
4r}
{4f
=13
4b-
4b-
4b-
4b-
=14
2b-
4a}
{4g
=15
4a
4a
4g
4f
=16
2g
4r}
{4g
=17
4d
4d
4e
4e
=18
2f
4f}
{4f
=19
4a
4a
4b-
4g
=20
2.f}
==
!!!AGN: Staende - Lied, Bettel - Moench
!!!ONB: ESAC (Essen Associative Code) Database: ERK3
!!!AMT: simple quadruple
!!!AIN: vox
!!!EED: Helmut Schaffrath
!!!EEV: 1.0
*-
